images/pages/applications/googleplay_de.svg

<svg width="135" height="40" viewBox="0 0 135 40" xmlns="http://www.w3.org/2000/svg"><title>google german</title><defs><linearGradient x1="91.504%" y1="4.962%" x2="-38.327%" y2="71.9%" id="a"><stop stop-color="#00A0FF" offset="0%"/><stop stop-color="#00A1FF" offset=".66%"/><stop stop-color="#00BEFF" offset="26.01%"/><stop stop-color="#00D2FF" offset="51.22%"/><stop stop-color="#00DFFF" offset="76.04%"/><stop stop-color="#00E3FF" offset="100%"/></linearGradient><linearGradient x1="107.583%" y1="49.994%" x2="-130.477%" y2="49.994%" id="b"><stop stop-color="#FFE000" offset="0%"/><stop stop-color="#FFBD00" offset="40.87%"/><stop stop-color="#FFA500" offset="77.54%"/><stop stop-color="#FF9C00" offset="100%"/></linearGradient><linearGradient x1="86.253%" y1="17.837%" x2="-50.14%" y2="194.798%" id="c"><stop stop-color="#FF3A44" offset="0%"/><stop stop-color="#C31162" offset="100%"/></linearGradient><linearGradient x1="-18.81%" y1="-54.149%" x2="42.093%" y2="24.867%" id="d"><stop stop-color="#32A071" offset="0%"/><stop stop-color="#2DA771" offset="6.85%"/><stop stop-color="#15CF74" offset="47.62%"/><stop stop-color="#06E775" offset="80.09%"/><stop stop-color="#00F076" offset="100%"/></linearGradient></defs><g fill="none" fill-rule="evenodd"><path d="M130 40H5c-2.75 0-5-2.25-5-5V5c0-2.75 2.25-5 5-5h125c2.75 0 5 2.25 5 5v30c0 2.75-2.25 5-5 5z" fill="#000"/><path d="M130 .8c2.316 0 4.2 1.884 4.2 4.2v30c0 2.316-1.884 4.2-4.2 4.2H5A4.205 4.205 0 0 1 .8 35V5C.8 2.684 2.684.8 5 .8h125zm0-.8H5C2.25 0 0 2.25 0 5v30c0 2.75 2.25 5 5 5h125c2.75 0 5-2.25 5-5V5c0-2.75-2.25-5-5-5z" fill="#A6A6A6"/><path d="M68.136 21.751c-2.352 0-4.269 1.789-4.269 4.253 0 2.449 1.917 4.253 4.269 4.253 2.353 0 4.27-1.804 4.27-4.253-.001-2.464-1.918-4.253-4.27-4.253zm0 6.832c-1.289 0-2.4-1.063-2.4-2.578 0-1.531 1.112-2.578 2.4-2.578 1.289 0 2.4 1.047 2.4 2.578 0 1.514-1.111 2.578-2.4 2.578zm-9.314-6.832c-2.352 0-4.269 1.789-4.269 4.253 0 2.449 1.917 4.253 4.269 4.253 2.353 0 4.27-1.804 4.27-4.253 0-2.464-1.917-4.253-4.27-4.253zm0 6.832c-1.289 0-2.4-1.063-2.4-2.578 0-1.531 1.112-2.578 2.4-2.578 1.289 0 2.4 1.047 2.4 2.578.001 1.514-1.111 2.578-2.4 2.578zm-11.078-5.526v1.804h4.318c-.129 1.015-.467 1.756-.983 2.271-.628.628-1.611 1.321-3.335 1.321-2.658 0-4.736-2.143-4.736-4.801 0-2.658 2.078-4.801 4.736-4.801 1.434 0 2.481.564 3.254 1.289l1.273-1.273c-1.08-1.031-2.513-1.82-4.527-1.82-3.641 0-6.702 2.964-6.702 6.605 0 3.641 3.061 6.605 6.702 6.605 1.965 0 3.448-.645 4.607-1.853 1.192-1.192 1.563-2.868 1.563-4.221 0-.418-.032-.805-.097-1.127h-6.073v.001zm45.308 1.401c-.354-.95-1.434-2.707-3.641-2.707-2.191 0-4.012 1.724-4.012 4.253 0 2.384 1.805 4.253 4.221 4.253 1.949 0 3.077-1.192 3.545-1.885l-1.45-.967c-.483.709-1.144 1.176-2.095 1.176-.95 0-1.627-.435-2.062-1.289l5.687-2.352-.193-.482zm-5.8 1.418c-.048-1.644 1.273-2.481 2.224-2.481.741 0 1.369.371 1.579.902l-3.803 1.579zM82.629 30h1.868V17.499h-1.868V30zm-3.062-7.298h-.064c-.419-.5-1.225-.951-2.239-.951-2.127 0-4.076 1.869-4.076 4.27 0 2.384 1.949 4.237 4.076 4.237 1.015 0 1.82-.451 2.239-.966h.064v.612c0 1.627-.87 2.497-2.271 2.497-1.144 0-1.853-.821-2.143-1.514l-1.627.677c.467 1.127 1.707 2.513 3.77 2.513 2.191 0 4.044-1.289 4.044-4.431V22.01h-1.772v.692h-.001zm-2.142 5.881c-1.289 0-2.368-1.08-2.368-2.562 0-1.499 1.079-2.594 2.368-2.594 1.272 0 2.271 1.095 2.271 2.594 0 1.482-.999 2.562-2.271 2.562zm24.381-11.084h-4.471V30H99.2v-4.736h2.605c2.068 0 4.102-1.497 4.102-3.882s-2.033-3.883-4.101-3.883zm.048 6.025H99.2v-4.285h2.654c1.395 0 2.187 1.155 2.187 2.143 0 .968-.792 2.142-2.187 2.142zm11.532-1.795c-1.351 0-2.75.595-3.329 1.914l1.656.691c.354-.691 1.014-.917 1.705-.917.965 0 1.946.579 1.962 1.608v.129c-.338-.193-1.062-.482-1.946-.482-1.785 0-3.603.981-3.603 2.814 0 1.673 1.464 2.75 3.104 2.75 1.254 0 1.946-.563 2.38-1.223h.064v.965h1.802v-4.793c.001-2.218-1.657-3.456-3.795-3.456zm-.226 6.851c-.61 0-1.463-.306-1.463-1.062 0-.965 1.062-1.335 1.979-1.335.819 0 1.206.177 1.704.418a2.262 2.262 0 0 1-2.22 1.979zm10.583-6.578l-2.139 5.42h-.064l-2.22-5.42h-2.01l3.329 7.575-1.898 4.214h1.946l5.131-11.789h-2.075zM106.937 30h1.865V17.499h-1.865V30z" fill="#FFF"/><path d="M1.436.538c-.291.308-.463.786-.463 1.405v22.116c0 .62.172 1.097.463 1.405l.074.072 12.389-12.389v-.292L1.51.465l-.074.073z" fill="url(#a)" transform="translate(9 7)"/><path d="M18.028 17.278l-4.129-4.131v-.292l4.13-4.13.093.053 4.893 2.78c1.397.794 1.397 2.093 0 2.888l-4.893 2.78-.094.052z" fill="url(#b)" transform="translate(9 7)"/><path d="M18.122 17.225l-4.224-4.224L1.436 25.464c.46.488 1.221.548 2.078.062l14.608-8.301" fill="url(#c)" transform="translate(9 7)"/><path d="M18.122 8.777L3.514.477C2.657-.01 1.896.051 1.436.539l12.463 12.463 4.223-4.225z" fill="url(#d)" transform="translate(9 7)"/><g fill="#000"><path d="M27.029 24.132L12.514 32.38c-.812.461-1.538.43-2.004.011l-.074.074.074.072c.466.42 1.192.451 2.004-.011l14.608-8.3-.093-.094z" opacity=".2"/><path d="M10.436 32.318c-.291-.308-.463-.786-.463-1.405v.146c0 .619.172 1.097.463 1.405l.074-.074-.074-.072z" opacity=".12"/></g><path d="M32.015 21.299l-4.986 2.833.093.093 4.893-2.78c.699-.397 1.048-.92 1.048-1.443-.059.473-.415.936-1.048 1.297z" fill="#000" opacity=".12"/><path d="M12.514 7.623l19.501 11.08c.634.36.989.824 1.048 1.298 0-.523-.349-1.047-1.048-1.444L12.514 7.477c-1.398-.794-2.541-.134-2.541 1.466v.146c0-1.6 1.143-2.26 2.541-1.466z" fill="#FFF" opacity=".25"/><g stroke="#FFF" stroke-width=".2" fill="#FFF"><path d="M43.011 13.134c-.437 0-.808-.121-1.115-.364-.307-.243-.525-.585-.653-1.026l.704-.293c.179.631.545.947 1.098.947.357 0 .633-.116.825-.348.192-.231.289-.546.289-.942V7h.771v4.089c0 .654-.181 1.158-.541 1.513-.36.355-.819.532-1.378.532zM49.707 7.737h-2.732v1.902h2.464v.721h-2.464v1.902h2.732V13h-3.503V7h3.503zM52.958 13h-.771V7.737H50.51V7h4.123v.737h-1.676V13zM55.271 13v-.805l3.192-4.458h-3.059V7h3.955v.805l-3.192 4.458h3.227V13zM62.544 13h-.771V7.737h-1.676V7h4.123v.737h-1.676zM67.205 13V7h2.169c.47 0 .876.155 1.22.465.344.311.516.7.516 1.169a1.3 1.3 0 0 1-.223.754 1.395 1.395 0 0 1-.591.495v.033c.296.101.539.274.729.52.189.246.285.531.285.855 0 .492-.181.899-.541 1.223-.36.324-.786.486-1.278.486h-2.286zm.77-3.428h1.399c.291 0 .524-.096.7-.289a.917.917 0 0 0 .264-.632.916.916 0 0 0-.256-.628.861.861 0 0 0-.674-.285h-1.433v1.834zm0 2.691h1.55a.922.922 0 0 0 .721-.311.994.994 0 0 0 .276-.679.968.968 0 0 0-.285-.674c-.189-.204-.438-.306-.746-.306h-1.516v1.97zM75.852 7.737H73.12v1.902h2.464v.721H73.12v1.902h2.732V13h-3.503V7h3.503zM77.059 13V7h.771v6z"/></g></g></svg>

<?xml version="1.0" encoding="UTF-8" standalone="no"?>
<svg width="135px" height="40px" viewBox="0 0 135 40" version="1.1" xmlns="http://www.w3.org/2000/svg" xmlns:xlink="http://www.w3.org/1999/xlink">
    <!-- Generator: Sketch 39.1 (31720) - http://www.bohemiancoding.com/sketch -->
    <title>google german</title>
    <desc>Created with Sketch.</desc>
    <defs>
        <linearGradient x1="91.5039455%" y1="4.96190818%" x2="-38.3274021%" y2="71.8998046%" id="linearGradient-1">
            <stop stop-color="#00A0FF" offset="0%"></stop>
            <stop stop-color="#00A1FF" offset="0.66%"></stop>
            <stop stop-color="#00BEFF" offset="26.01%"></stop>
            <stop stop-color="#00D2FF" offset="51.22%"></stop>
            <stop stop-color="#00DFFF" offset="76.04%"></stop>
            <stop stop-color="#00E3FF" offset="100%"></stop>
        </linearGradient>
        <linearGradient x1="107.583323%" y1="49.9941541%" x2="-130.477432%" y2="49.9941541%" id="linearGradient-2">
            <stop stop-color="#FFE000" offset="0%"></stop>
            <stop stop-color="#FFBD00" offset="40.87%"></stop>
            <stop stop-color="#FFA500" offset="77.54%"></stop>
            <stop stop-color="#FF9C00" offset="100%"></stop>
        </linearGradient>
        <linearGradient x1="86.252547%" y1="17.8365388%" x2="-50.1402373%" y2="194.798424%" id="linearGradient-3">
            <stop stop-color="#FF3A44" offset="0%"></stop>
            <stop stop-color="#C31162" offset="100%"></stop>
        </linearGradient>
        <linearGradient x1="-18.8097807%" y1="-54.1488449%" x2="42.0933717%" y2="24.8670947%" id="linearGradient-4">
            <stop stop-color="#32A071" offset="0%"></stop>
            <stop stop-color="#2DA771" offset="6.85%"></stop>
            <stop stop-color="#15CF74" offset="47.62%"></stop>
            <stop stop-color="#06E775" offset="80.09%"></stop>
            <stop stop-color="#00F076" offset="100%"></stop>
        </linearGradient>
    </defs>
    <g id="apps" stroke="none" stroke-width="1" fill="none" fill-rule="evenodd">
        <g id="localized-badges" transform="translate(-198.000000, -239.000000)">
            <g id="google-german" transform="translate(198.000000, 239.000000)">
                <g id="artwork">
                    <g id="Group">
                        <path d="M130,40 L5,40 C2.25,40 0,37.75 0,35 L0,5 C0,2.25 2.25,0 5,0 L130,0 C132.75,0 135,2.25 135,5 L135,35 C135,37.75 132.75,40 130,40 L130,40 Z" id="Shape" fill="#000000"></path>
                        <path d="M130,0.8 C132.316,0.8 134.2,2.684 134.2,5 L134.2,35 C134.2,37.316 132.316,39.2 130,39.2 L5,39.2 C2.684,39.2 0.8,37.316 0.8,35 L0.8,5 C0.8,2.684 2.684,0.8 5,0.8 L130,0.8 L130,0.8 Z M130,0 L5,0 C2.25,0 0,2.25 0,5 L0,35 C0,37.75 2.25,40 5,40 L130,40 C132.75,40 135,37.75 135,35 L135,5 C135,2.25 132.75,0 130,0 L130,0 L130,0 Z" id="Shape" fill="#A6A6A6"></path>
                        <path d="M68.136,21.751 C65.784,21.751 63.867,23.54 63.867,26.004 C63.867,28.453 65.784,30.257 68.136,30.257 C70.489,30.257 72.406,28.453 72.406,26.004 C72.405,23.54 70.488,21.751 68.136,21.751 L68.136,21.751 Z M68.136,28.583 C66.847,28.583 65.736,27.52 65.736,26.005 C65.736,24.474 66.848,23.427 68.136,23.427 C69.425,23.427 70.536,24.474 70.536,26.005 C70.536,27.519 69.425,28.583 68.136,28.583 L68.136,28.583 Z M58.822,21.751 C56.47,21.751 54.553,23.54 54.553,26.004 C54.553,28.453 56.47,30.257 58.822,30.257 C61.175,30.257 63.092,28.453 63.092,26.004 C63.092,23.54 61.175,21.751 58.822,21.751 L58.822,21.751 Z M58.822,28.583 C57.533,28.583 56.422,27.52 56.422,26.005 C56.422,24.474 57.534,23.427 58.822,23.427 C60.111,23.427 61.222,24.474 61.222,26.005 C61.223,27.519 60.111,28.583 58.822,28.583 L58.822,28.583 Z M47.744,23.057 L47.744,24.861 L52.062,24.861 C51.933,25.876 51.595,26.617 51.079,27.132 C50.451,27.76 49.468,28.453 47.744,28.453 C45.086,28.453 43.008,26.31 43.008,23.652 C43.008,20.994 45.086,18.851 47.744,18.851 C49.178,18.851 50.225,19.415 50.998,20.14 L52.271,18.867 C51.191,17.836 49.758,17.047 47.744,17.047 C44.103,17.047 41.042,20.011 41.042,23.652 C41.042,27.293 44.103,30.257 47.744,30.257 C49.709,30.257 51.192,29.612 52.351,28.404 C53.543,27.212 53.914,25.536 53.914,24.183 C53.914,23.765 53.882,23.378 53.817,23.056 L47.744,23.056 L47.744,23.057 Z M93.052,24.458 C92.698,23.508 91.618,21.751 89.411,21.751 C87.22,21.751 85.399,23.475 85.399,26.004 C85.399,28.388 87.204,30.257 89.62,30.257 C91.569,30.257 92.697,29.065 93.165,28.372 L91.715,27.405 C91.232,28.114 90.571,28.581 89.62,28.581 C88.67,28.581 87.993,28.146 87.558,27.292 L93.245,24.94 L93.052,24.458 L93.052,24.458 Z M87.252,25.876 C87.204,24.232 88.525,23.395 89.476,23.395 C90.217,23.395 90.845,23.766 91.055,24.297 L87.252,25.876 L87.252,25.876 Z M82.629,30 L84.497,30 L84.497,17.499 L82.629,17.499 L82.629,30 L82.629,30 Z M79.567,22.702 L79.503,22.702 C79.084,22.202 78.278,21.751 77.264,21.751 C75.137,21.751 73.188,23.62 73.188,26.021 C73.188,28.405 75.137,30.258 77.264,30.258 C78.279,30.258 79.084,29.807 79.503,29.292 L79.567,29.292 L79.567,29.904 C79.567,31.531 78.697,32.401 77.296,32.401 C76.152,32.401 75.443,31.58 75.153,30.887 L73.526,31.564 C73.993,32.691 75.233,34.077 77.296,34.077 C79.487,34.077 81.34,32.788 81.34,29.646 L81.34,22.01 L79.568,22.01 L79.568,22.702 L79.567,22.702 Z M77.425,28.583 C76.136,28.583 75.057,27.503 75.057,26.021 C75.057,24.522 76.136,23.427 77.425,23.427 C78.697,23.427 79.696,24.522 79.696,26.021 C79.696,27.503 78.697,28.583 77.425,28.583 L77.425,28.583 Z M101.806,17.499 L97.335,17.499 L97.335,30 L99.2,30 L99.2,25.264 L101.805,25.264 C103.873,25.264 105.907,23.767 105.907,21.382 C105.907,18.997 103.874,17.499 101.806,17.499 L101.806,17.499 Z M101.854,23.524 L99.2,23.524 L99.2,19.239 L101.854,19.239 C103.249,19.239 104.041,20.394 104.041,21.382 C104.041,22.35 103.249,23.524 101.854,23.524 L101.854,23.524 Z M113.386,21.729 C112.035,21.729 110.636,22.324 110.057,23.643 L111.713,24.334 C112.067,23.643 112.727,23.417 113.418,23.417 C114.383,23.417 115.364,23.996 115.38,25.025 L115.38,25.154 C115.042,24.961 114.318,24.672 113.434,24.672 C111.649,24.672 109.831,25.653 109.831,27.486 C109.831,29.159 111.295,30.236 112.935,30.236 C114.189,30.236 114.881,29.673 115.315,29.013 L115.379,29.013 L115.379,29.978 L117.181,29.978 L117.181,25.185 C117.182,22.967 115.524,21.729 113.386,21.729 L113.386,21.729 Z M113.16,28.58 C112.55,28.58 111.697,28.274 111.697,27.518 C111.697,26.553 112.759,26.183 113.676,26.183 C114.495,26.183 114.882,26.36 115.38,26.601 C115.235,27.76 114.238,28.58 113.16,28.58 L113.16,28.58 Z M123.743,22.002 L121.604,27.422 L121.54,27.422 L119.32,22.002 L117.31,22.002 L120.639,29.577 L118.741,33.791 L120.687,33.791 L125.818,22.002 L123.743,22.002 L123.743,22.002 Z M106.937,30 L108.802,30 L108.802,17.499 L106.937,17.499 L106.937,30 L106.937,30 Z" id="Shape" fill="#FFFFFF"></path>
                        <g transform="translate(9.000000, 7.000000)" id="Shape">
                            <path d="M1.436,0.538 C1.145,0.846 0.973,1.324 0.973,1.943 L0.973,24.059 C0.973,24.679 1.145,25.156 1.436,25.464 L1.51,25.536 L13.899,13.147 L13.899,13.001 L13.899,12.855 L1.51,0.465 L1.436,0.538 L1.436,0.538 Z" fill="url(#linearGradient-1)"></path>
                            <path d="M18.028,17.278 L13.899,13.147 L13.899,13.001 L13.899,12.855 L18.029,8.725 L18.122,8.778 L23.015,11.558 C24.412,12.352 24.412,13.651 23.015,14.446 L18.122,17.226 L18.028,17.278 L18.028,17.278 Z" fill="url(#linearGradient-2)"></path>
                            <path d="M18.122,17.225 L13.898,13.001 L1.436,25.464 C1.896,25.952 2.657,26.012 3.514,25.526 L18.122,17.225" fill="url(#linearGradient-3)"></path>
                            <path d="M18.122,8.777 L3.514,0.477 C2.657,-0.01 1.896,0.051 1.436,0.539 L13.899,13.002 L18.122,8.777 L18.122,8.777 Z" fill="url(#linearGradient-4)"></path>
                            <g transform="translate(0.000000, 17.000000)" fill="#000000">
                                <path d="M18.029,0.132 L3.514,8.38 C2.702,8.841 1.976,8.81 1.51,8.391 L1.51,8.391 L1.436,8.465 L1.436,8.465 L1.51,8.537 L1.51,8.537 C1.976,8.957 2.702,8.988 3.514,8.526 L18.122,0.226 L18.029,0.132 L18.029,0.132 Z" opacity="0.2"></path>
                                <path d="M1.436,8.318 C1.145,8.01 0.973,7.532 0.973,6.913 L0.973,7.059 C0.973,7.678 1.145,8.156 1.436,8.464 L1.51,8.39 L1.436,8.318 L1.436,8.318 Z" opacity="0.12"></path>
                            </g>
                            <path d="M23.015,14.299 L18.029,17.132 L18.122,17.225 L23.015,14.445 C23.714,14.048 24.063,13.525 24.063,13.002 L24.063,13.002 C24.004,13.475 23.648,13.938 23.015,14.299 L23.015,14.299 Z" fill="#000000" opacity="0.12"></path>
                            <path d="M3.514,0.623 L23.015,11.703 C23.649,12.063 24.004,12.527 24.063,13.001 L24.063,13.001 C24.063,12.478 23.714,11.954 23.015,11.557 L3.514,0.477 C2.116,-0.317 0.973,0.343 0.973,1.943 L0.973,2.089 C0.973,0.489 2.116,-0.171 3.514,0.623 L3.514,0.623 Z" fill="#FFFFFF" opacity="0.25"></path>
                        </g>
                    </g>
                    <g id="Group" transform="translate(41.000000, 7.000000)" stroke="#FFFFFF" stroke-width="0.2" fill="#FFFFFF">
                        <path d="M2.011,6.134 C1.574,6.134 1.203,6.013 0.896,5.77 C0.589,5.527 0.371,5.185 0.243,4.744 L0.947,4.451 C1.126,5.082 1.492,5.398 2.045,5.398 C2.402,5.398 2.678,5.282 2.87,5.05 C3.062,4.819 3.159,4.504 3.159,4.108 L3.159,0 L3.93,0 L3.93,4.089 C3.93,4.743 3.749,5.247 3.389,5.602 C3.029,5.957 2.57,6.134 2.011,6.134 L2.011,6.134 Z" id="Shape"></path>
                        <polygon id="Shape" points="8.707 0.737 5.975 0.737 5.975 2.639 8.439 2.639 8.439 3.36 5.975 3.36 5.975 5.262 8.707 5.262 8.707 6 5.204 6 5.204 0 8.707 0"></polygon>
                        <polygon id="Shape" points="11.958 6 11.187 6 11.187 0.737 9.51 0.737 9.51 0 13.633 0 13.633 0.737 11.957 0.737 11.957 6"></polygon>
                        <polygon id="Shape" points="14.271 6 14.271 5.195 17.463 0.737 14.404 0.737 14.404 0 18.359 0 18.359 0.805 15.167 5.263 18.394 5.263 18.394 6"></polygon>
                        <polygon id="Shape" points="21.544 6 20.773 6 20.773 0.737 19.097 0.737 19.097 0 23.22 0 23.22 0.737 21.544 0.737"></polygon>
                        <path d="M26.205,6 L26.205,0 L28.374,0 C28.844,0 29.25,0.155 29.594,0.465 C29.938,0.776 30.11,1.165 30.11,1.634 C30.11,1.919 30.036,2.171 29.887,2.388 C29.74,2.606 29.542,2.771 29.296,2.883 L29.296,2.916 C29.592,3.017 29.835,3.19 30.025,3.436 C30.214,3.682 30.31,3.967 30.31,4.291 C30.31,4.783 30.129,5.19 29.769,5.514 C29.409,5.838 28.983,6 28.491,6 L26.205,6 L26.205,6 Z M26.975,2.572 L28.374,2.572 C28.665,2.572 28.898,2.476 29.074,2.283 C29.25,2.091 29.338,1.88 29.338,1.651 C29.338,1.422 29.253,1.212 29.082,1.023 C28.912,0.833 28.687,0.738 28.408,0.738 L26.975,0.738 L26.975,2.572 L26.975,2.572 Z M26.975,5.263 L28.525,5.263 C28.821,5.263 29.061,5.159 29.246,4.952 C29.431,4.746 29.522,4.519 29.522,4.273 C29.522,4.027 29.427,3.803 29.237,3.599 C29.048,3.395 28.799,3.293 28.491,3.293 L26.975,3.293 L26.975,5.263 L26.975,5.263 Z" id="Shape"></path>
                        <polygon id="Shape" points="34.852 0.737 32.12 0.737 32.12 2.639 34.584 2.639 34.584 3.36 32.12 3.36 32.12 5.262 34.852 5.262 34.852 6 31.349 6 31.349 0 34.852 0"></polygon>
                        <polygon id="Shape" points="36.059 6 36.059 0 36.83 0 36.83 6"></polygon>
                    </g>
                </g>
            </g>
        </g>
    </g>
</svg>
